lib/icons/merge.svg

<svg width="18" height="14" viewBox="0 0 18 14" fill="none" xmlns="http://www.w3.org/2000/svg">
<path fill-rule="evenodd" clip-rule="evenodd" d="M14.9321 4.66144C14.7137 4.44619 14.3596 4.44619 14.1412 4.66144L12.1638 6.61024C11.9454 6.8255 11.9454 7.1745 12.1638 7.38976L14.1412 9.33856C14.3596 9.55381 14.7137 9.55381 14.9321 9.33856C15.1506 9.1233 15.1506 8.7743 14.9321 8.55904L13.9095 7.5512H17.4407C17.7496 7.5512 18 7.30442 18 7C18 6.69558 17.7496 6.4488 17.4407 6.4488H13.9095L14.9321 5.44096C15.1506 5.2257 15.1506 4.8767 14.9321 4.66144Z" fill="#7A859E"/>
<path fill-rule="evenodd" clip-rule="evenodd" d="M3.06785 9.33856C3.28627 9.55381 3.64039 9.55381 3.85881 9.33856L5.83619 7.38976C6.0546 7.1745 6.0546 6.8255 5.83619 6.61024L3.85881 4.66144C3.64039 4.44619 3.28627 4.44619 3.06785 4.66144C2.84944 4.8767 2.84944 5.2257 3.06785 5.44096L4.09047 6.4488L0.559288 6.4488C0.250402 6.4488 -4.03769e-07 6.69558 0 7C-3.50542e-07 7.30442 0.250402 7.5512 0.559288 7.5512H4.09047L3.06785 8.55904C2.84944 8.7743 2.84944 9.1233 3.06785 9.33856Z" fill="#7A859E"/>
<path d="M8.5 0.5C8.5 0.223858 8.72386 0 9 0C9.27614 0 9.5 0.223858 9.5 0.5V13.5C9.5 13.7761 9.27614 14 9 14C8.72386 14 8.5 13.7761 8.5 13.5V0.5Z" fill="#7A859E"/>
<path d="M1.5 1C1.22386 1 1 0.776143 1 0.5C1 0.223858 1.22386 7.27326e-07 1.5 7.15256e-07L16.5 0C16.7761 -1.20706e-08 17 0.223857 17 0.5C17 0.776142 16.7761 0.999999 16.5 0.999999L1.5 1Z" fill="#7A859E"/>
<path d="M1.5 14C1.22386 14 1 13.7761 1 13.5C1 13.2239 1.22386 13 1.5 13L16.5 13C16.7761 13 17 13.2239 17 13.5C17 13.7761 16.7761 14 16.5 14L1.5 14Z" fill="#7A859E"/>
</svg>

<svg width="18" height="14" fill="none" xmlns="http://www.w3.org/2000/svg"><path fill-rule="evenodd" clip-rule="evenodd" d="M14.932 4.661a.565.565 0 0 0-.79 0l-1.978 1.95a.546.546 0 0 0 0 .779l1.977 1.949a.565.565 0 0 0 .791 0 .545.545 0 0 0 0-.78L13.91 7.551h3.532c.309 0 .559-.247.559-.551a.555.555 0 0 0-.56-.551h-3.53l1.022-1.008a.545.545 0 0 0 0-.78ZM3.068 9.339a.565.565 0 0 0 .79 0l1.978-1.95a.546.546 0 0 0 0-.779L3.86 4.661a.565.565 0 0 0-.791 0 .546.546 0 0 0 0 .78L4.09 6.449H.56A.555.555 0 0 0 0 7c0 .304.25.551.56.551h3.53L3.068 8.56a.546.546 0 0 0 0 .78Z" fill="#7A859E"/><path d="M8.5.5a.5.5 0 0 1 1 0v13a.5.5 0 0 1-1 0V.5Z" fill="#7A859E"/><path d="M1.5 1a.5.5 0 0 1 0-1h15a.5.5 0 0 1 0 1h-15ZM1.5 14a.5.5 0 0 1 0-1h15a.5.5 0 0 1 0 1h-15Z" fill="#7A859E"/></svg>
